assets/img/icons/duotone-icons/Communication/Safe-chat.svg

<?xml version="1.0" encoding="UTF-8"?>
<svg width="24px" height="24px" viewBox="0 0 24 24" version="1.1" xmlns="http://www.w3.org/2000/svg" xmlns:xlink="http://www.w3.org/1999/xlink">
    <!-- Generator: Sketch 52.2 (67145) - http://www.bohemiancoding.com/sketch -->
    <title>Stockholm-icons / Communication / Safe-chat</title>
    <desc>Created with Sketch.</desc>
    <g id="Stockholm-icons-/-Communication-/-Safe-chat" stroke="none" stroke-width="1" fill="none" fill-rule="evenodd">
        <rect id="bound" x="0" y="0" width="24" height="24"></rect>
        <path d="M8,17 C8.55228475,17 9,17.4477153 9,18 L9,21 C9,21.5522847 8.55228475,22 8,22 L3,22 C2.44771525,22 2,21.5522847 2,21 L2,18 C2,17.4477153 2.44771525,17 3,17 L3,16.5 C3,15.1192881 4.11928813,14 5.5,14 C6.88071187,14 8,15.1192881 8,16.5 L8,17 Z M5.5,15 C4.67157288,15 4,15.6715729 4,16.5 L4,17 L7,17 L7,16.5 C7,15.6715729 6.32842712,15 5.5,15 Z" id="Mask" fill="#335EEA" opacity="0.3"></path>
        <path d="M2,11.8650466 L2,6 C2,4.34314575 3.34314575,3 5,3 L19,3 C20.6568542,3 22,4.34314575 22,6 L22,15 C22,15.0032706 21.9999948,15.0065399 21.9999843,15.009808 L22.0249378,15 L22.0249378,19.5857864 C22.0249378,20.1380712 21.5772226,20.5857864 21.0249378,20.5857864 C20.7597213,20.5857864 20.5053674,20.4804296 20.317831,20.2928932 L18.0249378,18 L12.9835977,18 C12.7263047,14.0909841 9.47412135,11 5.5,11 C4.23590829,11 3.04485894,11.3127315 2,11.8650466 Z M6,7 C5.44771525,7 5,7.44771525 5,8 C5,8.55228475 5.44771525,9 6,9 L15,9 C15.5522847,9 16,8.55228475 16,8 C16,7.44771525 15.5522847,7 15,7 L6,7 Z" id="Combined-Shape" fill="#335EEA"></path>
    </g>
</svg>

<svg width="24" height="24" viewBox="0 0 24 24" xmlns="http://www.w3.org/2000/svg"><g fill="none" fill-rule="evenodd"><path d="M0 0h24v24H0z"/><path d="M8 17a1 1 0 011 1v3a1 1 0 01-1 1H3a1 1 0 01-1-1v-3a1 1 0 011-1v-.5a2.5 2.5 0 115 0v.5zm-2.5-2A1.5 1.5 0 004 16.5v.5h3v-.5A1.5 1.5 0 005.5 15z" fill="#335EEA" opacity=".3"/><path d="M2 11.865V6a3 3 0 013-3h14a3 3 0 013 3v9.01l.025-.01v4.586a1 1 0 01-1.707.707L18.025 18h-5.041A7.5 7.5 0 002 11.865zM6 7a1 1 0 100 2h9a1 1 0 000-2H6z" fill="#335EEA"/></g></svg>
